X:1
T:Da ricca pianta
T:Da ricca pianta
T:Enrico Radesca di Foggia
T:Source : Canzonette, madrigale & arie---Libro I---Milano---Heredes S.Tini & F.Lomazzi---1606. Editor : André Vierendeels (18/03/14).
C:Enrico Radesca di Foggia
%%score [ 1 2 ] 3
L:1/8
Q:1/4=120
M:4/4
K:F
V:1 treble nm="Soprano" snm="S"
V:2 bass nm="Bass" snm="B"
V:3 bass nm="MusicXML Part"
V:1
 G4 B2 B2 | AG ^FG A2 A2 | B3 A G2 G2 | ^F2 F2 B2 BB | A2 G2 ^F4 | G4 d2 dd | B2 B2 A4 | G4 B4 | %8
w: La ric- ca|pian- * * * * ta|leg- gia- dret- ti|fio- ri, pren- dea- la|bel- la Clo-|ri, pren- dea la|bel- la Clo-|ri: ne|
 c4 d2 B2- | B2 c2 d4 | _e4 d2 d2 | c8 | B4 d2 cB | c2 A2 B4 | A2 GF G2 A2 | ^F2 d3 c B2 | %16
w: tan- ti con|_ la man|blanc' an- ci-|de-|a, quan- ti co'l|sguard' al- hor,|quan- ti co'l sguard' al-|hor na- scer fa-|
 A2 B2 A4 |[M:3/4] G6 :| B4 A2 |:[M:4/4] B2 dd ^c4 |"^-natural" d2 d4 c2 | B2 AG ^F4 | G2 B4 A2 | %23
w: ce- * *|a,|ca- ra|ma- no le- ta-|le, ca- ro|sguar- do vi- ta-|le ca- ri|
 B2 dd ^c4 | d4 d2 c2 | B2 BB A4 | G4 B2 c2 | d2 Bc d2 d2 |"^b" e3 d c4 | B2 d2 c2 d2 | %30
w: hor for- tu- na-|ti, e- voi|mor- ti'e voi na-|ti, che non|na- ti da lei vi-|ta tra- he-|te, che mort' in-|
 B2 c2 A2 B2 | GA BG cB AG | ^F2 B2 A4 | G4 B2 c2 | d2 Bc d2 d2 | _e3 d c4 | B2 B2 A2 B2 | %37
w: torn' al suo bel|crin _ _ _ _ _ _ _|_ for- ge-|te, che non|na- ti da lei vi-|ta tra- he-|te, che mort' in-|
 G4 A2 d2 | c2 d2 B2 c2 | A2 B2 GA Bc | d2 B2 A4 | G8 :| %42
w: tor- no, che|mort' in- torn' al|suo bel crin _ _ _|_ for- ge-|te.|
V:2
 G,,4 G,,2 G,,2 | D,4 D,4 | G,3 F, _E,2 C,2 | D,2 D,2 B,,2 B,,B,, | C,2 C,2 D,4 | G,4 ^F,2 F,F, | %6
w: La ric- ca|pian- ta|leg- gia- dret- ti|fio- ri, pren- dea la|bel- la Clo-|ri, pren- dea la|
 G,2 G,,2 D,4 | G,,4 G,4 | F,4 D,2 _E,2- | E,2 C,2 B,,4 |"^b" E,4 B,,2 B,,2 | F,8 | B,,8 | %13
w: bel- la Clo-|ri: ne|tan- ti con|_ la man|blanc' an- ci-|de-|a,|
 z4 G,2 F,E, | F,2 D,2 _E,2 C,2 | D,4 G,,4 | D,2 B,,2 C,2 D,2 |[M:3/4] G,,6 :| G,4 ^F,2 |: %19
w: quan- ti co'l|sguard' al- hor na-|scer fa-|ce- * * *|a,|ca- ra|
[M:4/4] G,2 D,D, A,4 | D,4 G,,2 A,,2 | B,,2 C,C, D,4 | G,,2 G,4 ^F,2 | G,2 B,B, A,4 | %24
w: ma- no le- ta-|le, ca- ro|sguar- do vi- ta-|le, ca- ri|hor for- tu- na-|
 D,4 G,,2 A,,2 | B,,2 G,,G,, D,4 | G,,4 G,2 F,2 | B,2 G,F, B,2 B,2 | _E,2 E,2 F,4 | %29
w: ti, e voi|mor- ti'e voi na-|ti, che non|na- ti da lei vi-|ta tra- he-|
 B,,2 B,,2 F,2 D,2 | _E,2 C,2 D,2 B,,2 |"^b" E,4 C,4 | D,8 | G,,4 G,2 F,2 | B,2 G,F, B,2 B,2 | %35
w: te, che mort' in-|torn' al suo bel|crin for-|ge-|te, che non|na- ti da lei vi-|
 _E,2 E,2 F,4 | B,,2 B,,2 F,2 D,2 | _E,4 D,2 B,,2 | F,2 D,2 _E,2 C,2 |"^b""^b" D,2 B,,2 E,2 E,2 | %40
w: ta tra- he|te, che mort' in-|tor- no, che|mort' in- torn' al|suo bel crin for-|
 D,8 | G,,8 :| %42
w: ge-|te.|
V:3
 G,,8 | D,8 | G,3 F, _E,2 C,2 | D,4 B,,4 | C,4 D,4 | G,4 ^F,4 | G,4 D,4 | G,,4 G,4 | %8
 F,4 D,2 _E,2- | E,2 C,2 B,,4 | _E,4 B,,4 | F,8 | B,,8 | z4 G,4 | F,2 D,2 _E,2 C,2 | D,4 G,,4 | %16
 D,2 B,,2 C,2 D,2 |[M:3/4] G,,6 :| G,4 ^F,2 |:[M:4/4] G,2 D,2 A,4 | D,4 G,,2 A,,2 | B,,2 C,2 D,4 | %22
 G,,2 G,4 ^F,2 | G,2 B,2 A,4 | D,4 G,,2 A,,2 | B,,2 G,,2 D,4 | G,,4 G,2 F,2 | B,2 G,2 B,2 B,2 | %28
 _E,4 F,4 | B,,4 F,2 D,2 | _E,2 C,2 D,2 B,,2 | _E,4 C,4 | D,8 | G,,4 G,2 F,2 | B,2 G,2 B,2 B,2 | %35
 _E,4 F,4 | B,,4 F,2 D,2 | _E,4 D,2 B,,2 | F,2 D,2 _E,2 C,2 | D,2 B,,2 _E,4 | D,8 | G,,8 :| %42

